packages/dnb-ui-lib/assets/icons/chain.svg

<svg width="16" height="16" viewBox="0 0 16 16" fill="none" xmlns="http://www.w3.org/2000/svg">
<path d="M10.7907 3.36092C11.215 3.12655 11.7006 3 12.2 3C12.9426 3 13.6548 3.27983 14.1799 3.77792C14.705 4.27601 15 4.95157 15 5.65598C15 6.36039 14.705 7.03595 14.1799 7.53404L11.21 10.3511C10.712 10.8243 10.0442 11.1019 9.33987 11.1285C8.63555 11.1551 7.94657 10.9287 7.41049 10.4946C6.87441 10.0604 6.53068 9.45046 6.44791 8.78647C6.42189 8.57768 6.42227 8.36837 6.44791 8.16271M9.53038 8.16271C9.57672 7.91091 9.58488 7.65204 9.55269 7.39396C9.46986 6.7299 9.12601 6.11991 8.5898 5.68581C8.05359 5.25171 7.36448 5.02544 6.66009 5.05218C5.95571 5.07893 5.28787 5.35672 4.78996 5.83009L1.8201 8.64778C1.295 9.14587 1 9.82143 1 10.5258C1 11.2302 1.295 11.9058 1.8201 12.4039C2.34521 12.902 3.0574 13.1818 3.80001 13.1818C4.36342 13.1818 4.90932 13.0207 5.3693 12.7255" stroke="black" stroke-width="1.5" stroke-linecap="round" stroke-linejoin="round"/>
</svg>

<svg width="16" height="16" viewBox="0 0 16 16" fill="none" xmlns="http://www.w3.org/2000/svg"><path d="M10.79 3.36c.425-.233.91-.36 1.41-.36.743 0 1.455.28 1.98.778.525.498.82 1.174.82 1.878s-.295 1.38-.82 1.878l-2.97 2.817a2.873 2.873 0 01-1.87.777 2.896 2.896 0 01-1.93-.633 2.619 2.619 0 01-.962-1.709 2.52 2.52 0 010-.623m3.082 0a2.52 2.52 0 00.023-.769 2.619 2.619 0 00-.963-1.708 2.896 2.896 0 00-1.93-.634 2.873 2.873 0 00-1.87.778L1.82 8.648A2.589 2.589 0 001 10.526c0 .704.295 1.38.82 1.878a2.879 2.879 0 001.98.778c.563 0 1.11-.161 1.57-.457" stroke="#000" stroke-width="1.5" stroke-linecap="round" stroke-linejoin="round"/></svg>
